X: 1
T: The Comical Fellow
N: From Apted Book of Country Dances
N: abc version for abc2midi by Robert Bley-Vroman vroman@hawaii.edu 14 October 1996
M: 6/8
L: 1/8
Q:3/8=110
K:D
  |: A | d2f e2A | B2d c2F | GFG EAG | FDD D2
     A | d2f e2A | B2d c2F | GFG EAG | FDD D2 :|
  |: A | d2d d2d |=cBA BGB | e2e e2e | dcB cAc |
         fef def | gfg efg | agf agf | eee e2
     a | aaa a2 a| aaa a2a | afd Aec | ddd d2 :|
